X:0210
T:The Capuchin
M:6/8
L:1/8
Q:3/8=120
I: :: ::
Z:Jack Campin * www.campin.me.uk * 2009
K:D
A|d2d dcd|e2e efg|fed dcd|ecA A3 |
  d2d dcd|e2e efg|fed edc|ddd d2:|
g|f2f fdf|g2g gbg|f2f fed|ecA A3 |
  f2f fdf|g2g gbg|fed edc|ddd d2:|

